X: 1
T:Off the Handel
T:Ashton's Folly
O:England
N:Oct 94
M:C
C:Andy Hornby
A:Lancaster
K:C
Gc|\
e2ef ecBc|A2Bc GcBc|F2Bc EcBc|D2dB cBAG|\
e2ef ecBc|d2de dBGc|
AFDd B3c|c6 :|\
|:g2|\
c'gef gecd|ecGF EGcG|
AFDd BGgf|edcB AGgb|\
c'gef gecd|ecGF EGcG|AFDd B3c|c6 :|
W:Copyright (C) Andy Hornby
